!!!OTL: Die Schlangenkoechin 'Oh, where have you been this livelong day,
!!!ARE: Westeuropa, England
!!!YOR: 4, S. 206
!!    1950 gedruckt
!!!SCT: Q2079F
!!!YEM: Copyright 1995, estate of Helmut Schaffrath.
**kern
*ICvox
*Ivox
*M6/8
*k[b-]
*d:
{8A
=1
8d
8d
8d
8d
8fn
8g
=2
4a
8a
4a}
{8a
=3
8b-
8b-
8b-
4dd
8b-
=4
[4.a
4a]}
{8dd
=5
4a
8dd
4a
8g
=6
4fn
16fn
16e
4d}
{8b-
=7
4a
8g
8fn
8g
8e
=8
[4.d
4d]}
==
!!!AGN: Ballade, Mord; Reigen - Tanz, antiphonal
!! Englische Fassung der Ballade.
!!    Zweite und vierte Zeile = Refrain.
!!!ONB: ESAC (Essen Associative Code) Database: BALLADE
!!!AMT: compound duple
!!!AIN: vox
!!!EED: Helmut Schaffrath
!!!EEV: 1.0
*-
